arcticons-light/symbolic/apps/steam_icon_1313140-symbolic.svg

<?xml version="1.0" encoding="UTF-8" standalone="no"?>
<svg
   id="b"
   viewBox="0 0 48 48"
   version="1.1"
   sodipodi:docname="steam_icon_1313140.svg"
   xmlns:inkscape="http://www.inkscape.org/namespaces/inkscape"
   xmlns:sodipodi="http://sodipodi.sourceforge.net/DTD/sodipodi-0.dtd"
   xmlns="http://www.w3.org/2000/svg"
   xmlns:svg="http://www.w3.org/2000/svg">
  <sodipodi:namedview
     id="namedview3"
     pagecolor="#ffffff"
     bordercolor="#666666"
     borderopacity="1.0"
     inkscape:showpageshadow="2"
     inkscape:pageopacity="0.0"
     inkscape:pagecheckerboard="0"
     inkscape:deskcolor="#d1d1d1" />
  <defs
     id="defs1">
    <style
       id="style1">.c{fill:none;stroke:#000;stroke-width:2px;stroke-linecap:round;stroke-linejoin:round;}</style>
  </defs>
  <path
     style="color:#000000;fill:#000000;stroke-linecap:round;stroke-linejoin:round;-inkscape-stroke:none"
     d="m 36.871094,3.5058594 c 0,0 -8.192398,1.1359214 -12.833985,10.2421876 C 21.356577,8.9144084 18.460606,6.2627812 16.083984,4.9804687 14.756527,4.2642359 13.60006,3.9354667 12.761719,3.7890625 11.923377,3.6426583 11.330078,3.6835938 11.330078,3.6835938 A 1.0001,1.0001 0 0 0 10.414063,4.625 L 8.3671875,42.224609 A 1.0001,1.0001 0 0 0 9.1269531,43.25 c 0,0 5.1285709,1.25 14.9531249,1.25 9.804892,0 14.744141,-0.951172 14.744141,-0.951172 a 1.0001,1.0001 0 0 0 0.808593,-1.025391 L 37.980469,4.4570312 A 1.0001,1.0001 0 0 0 36.871094,3.5058594 Z m -0.837891,2.2109375 1.5625,35.9765621 C 36.6073,41.862761 32.602749,42.5 24.080078,42.5 15.504536,42.5 11.373023,41.652019 10.414063,41.441406 L 12.357422,5.7519531 c 0.0393,0.00623 0.01808,-0.00156 0.06055,0.00586 0.646088,0.1128299 1.589931,0.3744186 2.716797,0.9824219 2.253731,1.2160066 5.269069,3.8231106 8.046875,9.5449216 a 1.0001,1.0001 0 0 0 0.898437,0.5625 1.0001,1.0001 0 0 0 0.927734,-0.623047 C 28.248522,8.2705587 33.840936,6.2374959 36.033203,5.7167969 Z"
     id="path1" />
  <path
     style="color:#000000;fill:#000000;stroke-linecap:round;stroke-linejoin:round;-inkscape-stroke:none"
     d="m 24.070312,24.3125 c -0.465311,0 -0.930588,0.207105 -1.208984,0.621094 -0.703083,1.045843 -1.115234,2.312389 -1.115234,3.664062 0,1.351756 0.412171,2.616296 1.115234,3.66211 0.556791,0.827977 1.861178,0.827977 2.417969,0 0.703083,-1.045843 1.115234,-2.310436 1.115234,-3.66211 0,-1.351673 -0.412151,-2.618219 -1.115234,-3.664062 C 25.000901,24.519605 24.535624,24.3125 24.070312,24.3125 Z m 0,3.220703 c 0.09374,0.364365 0.324219,0.668509 0.324219,1.064453 0,0.396223 -0.230347,0.699858 -0.324219,1.064453 -0.09387,-0.364584 -0.324218,-0.668181 -0.324218,-1.064453 0,-0.395944 0.230475,-0.700088 0.324218,-1.064453 z"
     id="path2" />
  <path
     style="color:#000000;fill:#000000;stroke-linecap:round;stroke-linejoin:round;-inkscape-stroke:none"
     d="m 24.080078,23 c -3.917412,0 -7.430336,1.789504 -9.746094,4.595703 -0.508966,0.616899 -0.508966,1.527632 0,2.144531 2.315758,2.806199 5.828682,4.597657 9.746094,4.597657 3.917413,0 7.43229,-1.791458 9.748047,-4.597657 0.508966,-0.616899 0.508966,-1.527632 0,-2.144531 C 31.512368,24.789504 27.997491,23 24.080078,23 Z m 0,2 c 3.191489,0 6.000433,1.447972 7.949219,3.667969 -1.948788,2.220035 -4.757699,3.669922 -7.949219,3.669922 -3.19148,0 -5.99848,-1.449935 -7.947266,-3.669922 C 18.081597,26.44802 20.888629,25 24.080078,25 Z"
     id="path3" />
</svg>

<?xml version="1.0" encoding="UTF-8"?>
<svg id="b" version="1.1" viewBox="0 0 48 48" xmlns="http://www.w3.org/2000/svg">
 <defs id="defs4">
  <style id="style2">.c{fill:none;stroke:#000;stroke-width:2px;stroke-linecap:round;stroke-linejoin:round;}</style>
 </defs>
 <path id="path6" d="m36.871 3.5059s-8.1924 1.1359-12.834 10.242c-2.6805-4.8336-5.5765-7.4853-7.9531-8.7676-1.3275-0.71623-2.4839-1.045-3.3223-1.1914-0.83834-0.1464-1.4316-0.10547-1.4316-0.10547a1.0001 1.0001 0 0 0-0.91602 0.94141l-2.0469 37.6a1.0001 1.0001 0 0 0 0.75977 1.0254s5.1286 1.25 14.953 1.25c9.8049 0 14.744-0.95117 14.744-0.95117a1.0001 1.0001 0 0 0 0.80859-1.0254l-1.6523-38.066a1.0001 1.0001 0 0 0-1.1094-0.95117zm-0.83789 2.2109 1.5625 35.977c-0.9884 0.1694-4.993 0.80664-13.516 0.80664-8.5755 0-12.707-0.84798-13.666-1.0586l1.9434-35.689c0.0393 0.00623 0.01808-0.00156 0.06055 0.00586 0.64609 0.11283 1.5899 0.37442 2.7168 0.98242 2.2537 1.216 5.2691 3.8231 8.0469 9.5449a1.0001 1.0001 0 0 0 0.89844 0.5625 1.0001 1.0001 0 0 0 0.92773-0.62305c3.2407-7.9541 8.8331-9.9871 11.025-10.508z" color="#000000" stroke-linecap="round" stroke-linejoin="round" style="-inkscape-stroke:none"/>
 <path id="path8" d="m24.07 24.312c-0.46531 0-0.93059 0.2071-1.209 0.62109-0.70308 1.0458-1.1152 2.3124-1.1152 3.6641 0 1.3518 0.41217 2.6163 1.1152 3.6621 0.55679 0.82798 1.8612 0.82798 2.418 0 0.70308-1.0458 1.1152-2.3104 1.1152-3.6621 0-1.3517-0.41215-2.6182-1.1152-3.6641-0.2784-0.41399-0.74367-0.62109-1.209-0.62109zm0 3.2207c0.09374 0.36436 0.32422 0.66851 0.32422 1.0645 0 0.39622-0.23035 0.69986-0.32422 1.0645-0.09387-0.36458-0.32422-0.66818-0.32422-1.0645 0-0.39594 0.23048-0.70009 0.32422-1.0645z" color="#000000" stroke-linecap="round" stroke-linejoin="round" style="-inkscape-stroke:none"/>
 <path id="path10" d="m24.08 23c-3.9174 0-7.4303 1.7895-9.7461 4.5957-0.50897 0.6169-0.50897 1.5276 0 2.1445 2.3158 2.8062 5.8287 4.5977 9.7461 4.5977 3.9174 0 7.4323-1.7915 9.748-4.5977 0.50897-0.6169 0.50897-1.5276 0-2.1445-2.3158-2.8062-5.8306-4.5957-9.748-4.5957zm0 2c3.1915 0 6.0004 1.448 7.9492 3.668-1.9488 2.22-4.7577 3.6699-7.9492 3.6699-3.1915 0-5.9985-1.4499-7.9473-3.6699 1.9488-2.2199 4.7558-3.668 7.9473-3.668z" color="#000000" stroke-linecap="round" stroke-linejoin="round" style="-inkscape-stroke:none"/>
</svg>
